X: 41166
T: Tripping To The Well
R: polka
M: 2/4
K: Gmajor
|:G>A BG|EG ED|G>A Bd|B2 A2|
G>A BG|EG ED|BG D>F|A2 G2:|
|:d>B GA|BG ED|d>B GA|B2 A2|
d>B GA|BG ED|BG D>F|A2 G2:|

